X: 1
T: Day Misha Somerville Gifted Me One Of His Whistles, The
M: 4/4
L: 1/8
R: hornpipe
K: Dmaj
|:fg|(3aba ^ga bafd|cB^AB g3f|(3efe de cdBc|Aaab agfg|
a2fa bafd|cBef g3f|efde cAfe|(3ded AF D2:|
|:DE|FEFA GABG|Adde f2ef|g2(3fgf ecBA|f2(3efe dBAG|
FEFA GABG|Adde f2ef|g2(3fgf eABc|(3ded ce d2:|
